!!!!SEGMENT: pl-wtm--r-730-24-m_moniuszko-stanislaw--spomnienie.krn
!!!cenid: 18xx:1704
!!!COM: Moniuszko, Stanisław
!!!COM-rism: pe30008351
!!!CDT: 1819/05/05-1872/06/04
!!!CNT: Polish
!!!OTL: Spomnienie
!!!PDT:
!!!AGN: Secular
!!!SMS-siglum: PL-Wtm
!!!SMS-shelfmark: R 730/24/M
!!!NIFC-rismID: 1001099836
!!!URL-scan: http://repozytorium.nifc.pl/skany/pl-wtm-nut--r730m-1-43
!!!ONB-nifc: Skan 0028, No. 776
!!!SMS-variant:
!!!SMS-altvar:
**kern	**kern	**dynam	**kern	**text	**text	**dynam
*part3	*part2	*part2	*part1	*part1	*part1	*part1
*staff3	*staff2	*	*staff1	*staff1	*staff1	*
*	*	*	*	*verse1	*verse2	*
*I"Fortepian	*I"Fortepian	*	*I"[Voice]	*	*	*
*I'pf	*I'pf	*	*I'[V]	*	*	*
*clefF4	*clefG2	*	*clefG2	*	*	*
*k[f#c#g#d#]	*k[f#c#g#d#]	*	*k[f#c#g#d#]	*	*	*
*M3/8	*M3/8	*	*M3/8	*	*	*
=1	=1	=1	=1	=1	=1	=1
!	!LO:TX:a:t=P:problem:znaki przykluczowe w źródle: f#, cc#, g#, dd#	!	!LO:TX:a:t=P:problem:znaki przykluczowe w źródle: f#, cc#, g#, dd#	!	!	!
!	!	!	!LO:TX:t=P:problem:all\right:global	!	!	!
!	!	!LO:DY:b:rj	!LO:TX:i:a:t=Moderato.	!	!	!
!	!	!LO:HP:a	!	!	!	!
(>4e\	8g#L 8e/	p <	4.r	.	.	.
.	8g# 8e/	.	.	.	.	.
8d#\	8g#J 8e/	[[	.	.	.	.
=2!|:	=2!|:	=2!|:	=2!|:	=2!|:	=2!|:	=2!|:
!	!	!LO:HP:a	!	!	!	!
8dn\L	(<8bL 8g# 8e/	>	4.r	.	.	.
8c#\	8a/	.	.	.	.	.
8B\J	8g#/J)	]]	.	.	.	.
=3	=3	=3	=3	=3	=3	=3
*	*^	*	*	*	*	*
!	!	!	!	!LO:TX:t=P:problem:w źródle po tym takcie cały takt wykreślony przez głównego skryptora (pominięty w edycji)	!	!	!
.	8qg#/	.	.	.	.	.	.
4A\)	(<8f#/L	(<4.c#\	.	4.r	.	.	.
.	8e/	.	.	.	.	.	.
8AA/	8f#/J	.	.	.	.	.	.
*	*v	*v	*	*	*	*	*
=4	=4	=4	=4	=4	=4	=4
[>4.D# [<4.GG#/	[>4.g#/ 4.B#X/)	.	16g#/	Na	Gdzież	.
.	.	.	16g#/	do-	dziś	.
.	.	.	8b#X/	-li-	ró-	.
.	.	.	8d#/	-nie	-że	.
=5	=5	=5	=5	=5	=5	=5
4.D#] 4.GG#/]	4.g#] 4.Bn/	.	16g#/	u	wo-	.
.	.	.	16g#/	je-	-nie-	.
.	.	.	8bn/	-zio-	-ją-	.
.	.	.	8d#/	-ra	-ce!	.
=6	=6	=6	=6	=6	=6	=6
4.E 4.EE/	(>4g# (<4B/	.	16e/	szu-	ta	.
.	.	.	16e/	-mi	os-	.
.	.	.	8g#/	ga-	-tat-	.
.	8f# 8d# 8A/))	.	8b/	-ik	-nia	.
=7	=7	=7	=7	=7	=7	=7
4.E 4.EE/	(<8eL 8G#/	.	16ee\	Kwi-	co	.
.	.	.	16ee\	-tnie	zos-	.
.	8f# 8A/	.	8dd#\	ni-	-ta-	.
.	8f##XJ 8A#X/)	.	8cc#\	-wa,	-ła,	.
=8	=8	=8	=8	=8	=8	=8
4.E 4.EE/	8g#L 8e 8B/	.	16b\	na	wo-	.
.	.	.	16b\	mod-	-ni	.
.	8f# 8d#/	.	8b\	-rze-	zaw-	.
.	8aJ 8c#/	.	8a/	-wiu	-sze	.
!!LO:LB:g=original
=9	=9	=9	=9	=9	=9	=9
8EL 8EE/	16.g#LL 16.B/	.	16g#/	sło-	choć	.
.	.	.	16g#/	-wik	zwię-	.
.	32b/JK	.	.	.	.	.
8BB/	8f# 8d# 8A/	.	8f#/	śpie-	-dnia-	.
8BB/J	8eJ 8G#/	.	8g#/	-wa	-ła	.
=10	=10	=10	=10	=10	=10	=10
!	!LO:S:s=1:note:problem:note-level slur	!	!	!	!	!
!	!LO:S:s=2:note:problem:note-level slur	!	!	!	!	!
(>4F# 4BB/	(>4d# (>4B/	.	16b/	od	jak	.
.	.	.	16b/	wie-	na	.
.	.	.	8.b/	-czo-	ni-	.
!	!LO:S:s=1:note:problem:note-level slur	!	!	!	!	!
!	!LO:S:s=2:note:problem:note-level slur	!	!	!	!	!
8A 8BB/)	8f# 8d#/))	.	.	.	.	.
.	.	.	16f#/	-ra	-wie,	.
=11	=11	=11	=11	=11	=11	=11
(>4G# 4E\	(>4e/	.	16b/	do	jak	.
.	.	.	16b/	wie-	na	.
.	.	.	8.b/	-czo-	łą-	.
8B 8E\)	8g# 8e/)	.	.	.	.	.
.	.	.	16g#/	-ra	-ce.	.
=12	=12	=12	=12	=12	=12	=12
4.C#/	4.a 4.e/	.	16a/	Tam	Ja-	.
.	.	.	16g#/	u-	-ko	.
.	.	.	8a/	-pły-	wo-	.
.	.	.	8cc#\	-wał	-ni	.
=13	=13	=13	=13	=13	=13	=13
4.D#/	4.a 4.f# 4.B/	.	16cc#\	czas	zwię-	.
.	.	.	16b\	móy	-dły	.
.	.	.	8.a/	mi-	ró-	.
.	.	.	16f#/	-ły	-ży	.
=14	=14	=14	=14	=14	=14	=14
(>4E\	8g#'<L 8e'/	.	16e/	tam	tak	.
.	.	.	16e/	na	i	.
.	(<8g# 8B/	.	8g#/	ró-	szczę-	.
8EE/)	8f#J 8d# 8A/	.	8f#/	-żach	-ścia	.
=15	=15	=15	=15	=15	=15	=15
(>4E\	8eL 8G#/	.	16e/LL	Kie-	i	.
.	.	.	16f#/JJ	.	ros-	.
.	8e 8B 8Gn/	.	16gn\LL	-dym	-ko-	.
.	.	.	16a\JJ	.	.	.
!	!LO:SIC:v:n=1:s=8gn	!	!	!	!	!
8E-X\	8g#J 8cn/)	.	16b\LL	śni-	-szy,	.
.	.	.	16ccn\JJ	-ła	.	.
=16	=16	=16	=16	=16	=16	=16
*^	*^	*	*	*	*	*
!	!	!	!	!	!	!	!	!LO:DY:a
4.B/	4.Dn\)	16gn/LL	4d#\	.	4ddn\	pieśń	nie	pp
.	.	16g/J	.	.	.	.	.	.
.	.	8g/	.	.	.	.	.	.
.	.	8g/J	8B</	.	8dd\	sło-	pa-	.
!!LO:LB:g=original
=17	=17	=17	=17	=17	=17	=17	=17	=17
!	!LO:SIC:v:s=4.Dn	!	!	!	!	!	!	!
4.A#X/	[<4.D#\	16gn/LL	4e\	.	(>8cc#\L	-wi-	-miąt-	.
.	.	16g/J	.	.	.	.	.	.
.	.	8g/	.	.	8ddn\J)	.	.	.
.	.	8g/J	8e\	.	8cc#\	-ka	-ki	.
=18	=18	=18	=18	=18	=18	=18	=18	=18
!	!LO:SIC:v:s=4.Dn	!	!	!	!	!	!	!
4.An/	4.D#\]	(>4ddn/	16f#\LL	.	(>8ccn\L	mnie	mi	.
.	.	.	16f#\J	.	.	.	.	.
.	.	.	8f#\	.	8ddn\J)	.	.	.
.	.	8ccn/)	8f#\J	.	8cc\	uś-	ros-	.
*v	*v	*	*	*	*	*	*	*
=19	=19	=19	=19	=19	=19	=19	=19
(<4A 4D#X\	4b/	(>16f#\LL	.	4b/	-pi-	-pro-	.
.	.	16B\J)	.	.	.	.	.
.	.	8B\	.	.	.	.	.
8D#\)	8a 8f#/	8B\J	.	8a/	-ła	-szy,	.
*	*v	*v	*	*	*	*	*
=20	=20	=20	=20	=20	=20	=20
*^	*	*	*	*	*	*
8E/L	4.E\	16g#LL 16e/	.	4g#/	i	się	.
.	.	16g#JJ 16e/	.	.	.	.	.
(<8e/	.	[>4g#/ [>4e/	.	.	.	.	.
8d#/J	.	.	.	8g#/	sny	do	.
=21	=21	=21	=21	=21	=21	=21	=21
*	*	*^	*	*	*	*	*
8dn/L	4.E\	(<8g#/L]	4.e\]	.	8b/L	słod-	gro-	.
8cn/	.	8a/	.	.	8a/J	.	.	.
8B/J)	.	8b/J)	.	.	8g#/	-kie	-bu	.
*v	*v	*	*	*	*	*	*	*
=22	=22	=22	=22	=22	=22	=22	=22
.	.	.	.	8qg#/	.	.	.
4.AA/	4e/	(<4.cn\	.	8f#/L	się	wier-	.
.	.	.	.	8e/J	.	.	.
.	8f#/	.	.	8f#/	ro-	-nie	.
=23	=23	=23	=23	=23	=23	=23	=23
!	!	!	!	!	!	!	!LO:DY:a:rj
4D# 4GG#/	16g#/LL	4B#X\)	.	4.g#/	-i-	słu-	f
.	16g#/J	.	.	.	.	.	.
!	!LO:N:vis=8	!	!	!	!	!	!
.	8.b#X/	.	.	.	.	.	.
8D# 8GG#/	.	8B#\	.	.	.	.	.
.	16d#/Jk	.	.	.	.	.	.
=24	=24	=24	=24	=24	=24	=24	=24
(>4G# (<4GG#\	16g#/LL	4Bn\	.	4d#/	-ły.	ży.	.
.	16g#/J	.	.	.	.	.	.
.	8.bn/	.	.	.	.	.	.
8F#) 8AA\)	.	8A\	.	8r	.	.	.
.	16d#/Jk	.	.	.	.	.	.
*	*v	*v	*	*	*	*	*
=25	=25	=25	=25	=25	=25	=25
4.E 4.EE/	16eLL 16G#/	.	16e/	Ran-	Mo-	.
.	16eJ 16G#/	.	16e/	-kiem	-ja	.
.	8e 8G#/	.	8g#/	bie-	prze-	.
.	8eJ 8G#/	.	8b/	-głam	-szłość	.
=26	=26	=26	=26	=26	=26	=26
4.BB 4.EE^>/	16eLL 16G#/	.	16ee\	ho-	ust	.
.	16eJ 16G#/	.	16ee\	-ża,	to	.
.	8e 8G#/	.	8.dd#\	sko-	wczo-	.
.	8eJ 8G#/	.	.	.	.	.
.	.	.	16cc#\	-ra,	-ra;	.
!!LO:PB:g=original
=27	=27	=27	=27	=27	=27	=27
4.BB 4.EE^>/	16f#LL 16d# 16A/	.	16cc#\	czy	do-	.
.	16f#J 16d# 16A/	.	16cc#\	móy	-tąd	.
.	8f# 8d# 8A/	.	8.b\	sło-	czu-	.
.	8d#J 8B 8A/	.	.	.	.	.
.	.	.	16a/	-wik	-ię	.
=28	=28	=28	=28	=28	=28	=28
4.BB 4.EE^>/	16eLL 16G#/	.	16g#/	zaw-	do-	.
.	16eJ 16G#/	.	16g#/	-sze	-tąd	.
.	8f# 8A/	.	8f#/	spie-	sły-	.
.	8eJ 8G#/	.	8e/	-wa,	-szę,	.
=29	=29	=29	=29	=29	=29	=29
8BBL 8EE\	16d#LL 16F#</	.	16d#/	czy-	spiew	.
.	16d#J 16F#</	.	16d#/	-li	sło-	.
!	!	!LO:HP:b	!	!	!	!
8BB 8EE\	8e 8G#</	<	8e/	za-	-wi-	.
8BBJ 8EE\	8f#J 8A</	.	8f#/	-wsze	-ka	<
=30	=30	=30	=30	=30	=30	=30
8EL 8EE/	8g#L 8B/	.	16g#/	Kwi-	ga-	.
.	.	.	16g#/	-tnie	-ju	.
8E 8EE/	8a 8cn/	.	8a/	ni-	ci-	.
8EJ 8EE/	8a#XJ 8c#X/	.	8a#X/	-wa	-sze	[
=31	=31	=31	=31	=31	=31	=31
!	!	!	!LO:TX:t=P:problem:tt. 31-33 zostały skreślone. Wersja poprawna zapisana poniżej.	!	!	!LO:DY:a
8E 8EE/	8bL 8g# 8dn/	.	16b\	na	na	.
.	.	.	16b\	do-	do-	.
4E^< 4EE/	(<8a#X^< 8gn 8c#/	.	8.ee\	-li-	-li-	.
.	8anJ 8e 8cn/)	.	.	.	.	.
.	.	.	16e/	-nie	-nie	.
=32	=32	=32	=32	=32	=32	=32
8E 8EE/	8g#L 8e 8B/	.	16g#/	na	na	.
.	.	.	16g#/	do-	do-	.
4E 4EE/	(<8gn^< 8c# 8A#X/	.	8.cc#\	-li-	-li-	.
.	8f#J 8d# 8An/)	.	.	.	.	.
.	.	.	16b\	-nie	-nie	.
=33	=33	=33	=33	=33	=33	=33
*	*^	*	*	*	*	*
16ELL 16EE/	8e 8B 8G#/	8ryy	.	16B/	u	u	.
16GG#/JJ	.	.	.	16B/	je-	je-	.
4BB 4BBB/	(<8.e/L	4B 4A\	.	8.g#/L	-zio-	-zio-	.
.	16d#/Jk)	.	.	16f#/Jk	.	.	.
*	*v	*v	*	*	*	*	*
=34	=34	=34	=34	=34	=34	=34
8BB 8EE/	8e 8B 8G#/	.	4e/	-ra.	-ra.	.
!	!	!LO:HP:a	!	!	!	!
8r	8g#L 8e/	<	.	.	.	.
(>16BL	8g#J 8e/	[	8r	.	.	.
16c#J	.	.	.	.	.	.
!!LO:LB:g=original
=35:|!	=35:|!	=35:|!	=35:|!	=35:|!	=35:|!	=35:|!
*	*^	*	*	*	*	*
!	!	!	!LO:HP:a	!	!	!	!
8dn\L	(<8bL 8g#/	4.e\	>	4.r	.	.	.
8c#\	8a/	.	]	.	.	.	.
8B\J)	8g#/J)	.	.	.	.	.	.
*	*v	*v	*	*	*	*	*
=36	=36	=36	=36	=36	=36	=36
.	8qg# 8qe/	.	.	.	.	.
4.B 4.BB\	(<8f#L 8d#/	.	4.r	.	.	.
.	8e 8c#/	.	.	.	.	.
.	8f#J 8d#/)	.	.	.	.	.
=37	=37	=37	=37	=37	=37	=37
4.E 4.EE;>\	4.g# 4.e 4.B;>/	.	4.r;>	.	.	.
==	==	==	==	==	==	==
*-	*-	*-	*-	*-	*-	*-
!!!system-decoration: {(s1),(s2,s3)}
!!!RDF**kern: > = above
!!!RDF**kern: < = below
!!!RDF**dynam: < = "crescendo."
!!!EED: Antoni Szymański
!!!EST: 2021-04-20
!!!ENC: Krzysztof Stępień
!!!END: 2021-04-01
